public/illustrations/success.svg

<svg width="42" height="54" viewBox="0 0 42 54" fill="none" xmlns="http://www.w3.org/2000/svg">
<path d="M37.1676 33.3887L23.0755 21.6418C23.0035 21.6666 22.9344 21.6991 22.8694 21.7387C21.9434 22.5548 21.0188 23.3729 20.0955 24.1932C19.9758 24.3107 19.8484 24.4201 19.7143 24.5208C19.5777 24.6365 19.4038 24.6987 19.2248 24.6956C19.0459 24.6926 18.8741 24.6246 18.7415 24.5043C18.1851 23.952 17.6431 23.3791 17.1423 22.7774C16.8373 22.4105 16.8868 22.0787 17.2145 21.714C17.4391 21.4646 17.6905 21.2379 17.9337 21.005C18.5519 20.4094 19.1867 19.8262 19.7884 19.2162C20.1948 18.8038 20.6653 18.46 21.1816 18.1982C22.5095 17.5035 23.8872 16.9083 25.3033 16.4176C27.361 15.7084 29.5338 15.3924 31.7084 15.4861C33.0964 15.5345 34.4626 15.845 35.7353 16.4011C35.8692 16.4609 36.0094 16.5062 36.1722 16.5701C36.5843 16.2012 36.9738 15.8344 37.3798 15.4758C37.961 14.9647 38.2516 14.9647 38.8224 15.4902C39.3933 16.0157 40.0115 16.5721 40.6009 17.1224C41.2583 17.7406 41.2666 18.0127 40.6648 18.6639L40.1682 19.1997C39.7951 19.6119 39.789 19.6119 40.0796 20.0529C40.8809 21.3006 41.4278 22.6943 41.6891 24.154C42.0457 26.1862 42.031 28.2663 41.6458 30.2933C41.4163 31.6208 41.0616 32.9235 40.5865 34.1842C40.5062 34.391 40.5062 34.6203 40.5865 34.8271C40.667 35.0544 40.6869 35.2988 40.6442 35.5361C40.4855 36.2636 40.2856 36.9787 40.0919 37.7041C40.0594 37.8515 39.9945 37.9897 39.9018 38.1088C39.8091 38.2279 39.691 38.3248 39.5561 38.3924C39.4482 38.446 39.3555 38.5258 39.2864 38.6244C39.2173 38.723 39.174 38.8374 39.1604 38.9571C38.6596 40.985 38.13 43.0067 37.656 45.0407C37.0728 47.5302 36.5349 50.028 35.9723 52.5216C35.8527 53.0512 35.793 53.111 35.2469 53.0698C34.6331 53.0226 34.0223 52.9435 33.4168 52.8328C31.2468 52.4371 29.0891 52.0208 26.9107 51.6148L17.6019 49.8528L14.3499 49.2531C14.1438 49.216 13.9563 49.1562 13.6966 49.0923C13.6966 48.6101 13.6739 48.1485 13.6966 47.6889C13.777 46.3081 13.8656 44.9274 13.9707 43.5466C14.0572 42.409 14.1768 41.2797 14.2716 40.1379C14.3664 38.9962 14.4612 37.871 14.5312 36.7252C14.6013 35.5505 14.6343 34.3717 14.7023 33.1949C14.7139 33.1036 14.7037 33.0107 14.6726 32.924C14.6414 32.8374 14.5901 32.7593 14.523 32.6962C14.409 32.5841 14.3226 32.4469 14.2707 32.2956C14.2188 32.1443 14.2029 31.983 14.2242 31.8245C14.2819 31.1712 14.3416 30.52 14.4302 29.8708C14.5415 28.962 15.0485 28.5848 15.9429 28.7744C17.7977 29.1742 19.6689 29.5864 21.5319 29.9965C23.4856 30.4252 25.4393 30.8552 27.393 31.2866L32.9222 32.5231C34.2371 32.813 35.5525 33.1015 36.8687 33.3887C36.9682 33.396 37.0681 33.396 37.1676 33.3887ZM40.3227 30.2562C40.3689 30.1538 40.4082 30.0485 40.4402 29.9409C40.7967 27.8161 40.8338 25.6976 40.2898 23.5955C39.3006 19.7809 36.4751 17.2646 32.4359 16.7762C30.2225 16.5062 28.0751 16.8359 25.9669 17.5037C25.8992 17.5399 25.8356 17.5835 25.7773 17.6335C30.6223 21.8355 35.4344 26.0211 40.3227 30.2562ZM33.8084 42.4482L18.9476 39.1817C18.9476 40.7912 18.7601 42.3039 18.7931 43.8701L32.8542 46.4091C33.1675 45.0716 33.4828 43.7898 33.8084 42.4482ZM19.0342 37.7597L34.1464 41.0777L34.9707 37.7185C34.4122 37.4671 19.6916 34.1924 19.2094 34.2151C19.1537 35.3836 19.0919 36.5541 19.0342 37.7597ZM32.5183 47.7919C30.9438 47.5034 29.427 47.2211 27.9082 46.9449C26.3893 46.6688 24.8169 46.3885 23.2775 46.1206C21.7648 45.8547 20.2563 45.5415 18.7024 45.3189C18.6241 46.5183 18.5087 47.6436 18.5767 48.8079L22.9622 49.6199C24.4047 49.8899 25.8618 50.1825 27.3167 50.4298C28.7717 50.6771 30.1875 51.0481 31.6795 51.2026C31.9598 50.0589 32.2257 48.9707 32.5183 47.7919ZM15.9697 30.0501C15.8203 30.5724 15.7508 31.1144 15.7636 31.6576C15.7636 31.9069 15.9161 32.0223 16.149 32.0532C16.3345 32.078 16.5241 32.08 16.7054 32.1192C18.7278 32.5685 20.7488 33.0205 22.7684 33.4752L37.4952 36.7788C37.893 36.8674 38.2928 36.9436 38.7441 37.0364L39.2284 35.1672L15.9697 30.0501ZM40.0404 31.8822L24.2275 18.159C23.1971 18.5135 22.4119 18.9133 22.1234 19.2533L39.453 33.6793C39.6612 33.0404 39.8446 32.4778 40.0404 31.8739V31.8822ZM16.2005 33.4567C16.1717 33.9101 16.1428 34.3161 16.1222 34.722C16.0728 35.7277 16.0295 36.7334 15.9738 37.7371C15.9615 37.9596 15.8914 38.1781 15.8728 38.3986C15.7904 39.4022 15.7203 40.4079 15.64 41.4116C15.506 43.1262 15.3597 44.8408 15.2278 46.5637C15.1907 47.0809 15.2278 47.5941 15.2278 48.1814L17.1238 48.5194C17.3587 43.5734 17.5895 38.718 17.8204 33.8256L16.2005 33.4567ZM36.3474 37.9761C35.2469 42.4956 34.1587 46.9614 33.0644 51.4499C33.5749 51.6306 34.1101 51.732 34.6513 51.7508C34.7255 51.4644 34.7935 51.215 34.8574 50.9657C35.4942 48.4555 35.8754 45.8898 36.539 43.3858C36.6895 42.8129 36.7636 42.2194 36.9017 41.6403C36.9821 41.3003 37.1387 40.9788 37.2315 40.6408C37.4066 39.9937 37.5612 39.3404 37.7199 38.6892C37.7487 38.5676 37.7549 38.4419 37.7755 38.277L36.3474 37.9761ZM18.3603 22.3281L19.2712 23.2823C20.1903 22.4167 21.1466 21.7078 22.041 20.8092L20.9157 19.8777L18.3603 22.3281ZM37.3324 17.2028L39.0285 18.6165L39.6282 17.9076L38.0888 16.5083L37.3324 17.2028Z" fill="#3558A2"/>
<path d="M28.8194 5.47645C29.0584 5.59804 29.2315 5.68253 29.3882 5.76702C29.9597 6.06383 30.4004 6.5626 30.6247 7.16634C31.2759 8.89332 29.7364 10.371 28.3866 10.1896C27.3891 10.0556 26.4679 9.07056 26.3917 7.98656C26.369 7.6527 26.3917 7.31884 26.3917 6.94377C26.2818 6.96933 26.1748 7.00592 26.0722 7.05299C24.574 7.9474 23.6363 9.23543 23.3519 10.9686C23.2963 11.3169 23.2983 11.6755 23.2736 12.0279C23.2489 12.4256 23.0675 12.6461 22.7193 12.6873C22.5591 12.6992 22.4004 12.6505 22.2744 12.5509C22.1485 12.4513 22.0645 12.308 22.0392 12.1495C22.0082 11.9837 21.9958 11.8151 22.0021 11.6466C22.0021 9.86604 22.7234 8.38429 23.9125 7.11275C24.6859 6.23296 25.7378 5.64519 26.8925 5.44759C27.1462 5.39119 27.3679 5.23817 27.5107 5.021C28.4964 3.79917 29.8922 2.97679 31.4387 2.70667C31.8486 2.65311 32.2629 2.64137 32.6752 2.67164C32.8429 2.68835 33.0051 2.74032 33.1513 2.82414C33.2619 2.87747 33.3525 2.96495 33.4096 3.07367C33.4667 3.18239 33.4874 3.3066 33.4686 3.42797C33.4633 3.55165 33.4152 3.66964 33.3325 3.76174C33.2498 3.85385 33.1376 3.91434 33.0152 3.93287C32.8098 3.95633 32.6024 3.95633 32.397 3.93287C30.975 3.87311 29.8704 4.5264 28.8194 5.47645ZM27.9559 6.71296C27.7592 7.003 27.6543 7.34553 27.655 7.69598C27.6412 7.93163 27.6997 8.16588 27.8227 8.36735C27.9457 8.56883 28.1274 8.72789 28.3433 8.82326C28.4751 8.88936 28.6241 8.91311 28.7699 8.89126C28.9962 8.82547 29.1908 8.67963 29.3174 8.48094C29.4441 8.28224 29.4941 8.04426 29.4582 7.81138C29.3469 7.1787 28.7287 6.71501 27.9559 6.71501V6.71296Z" fill="#3558A2"/>
<path d="M11.831 20.504C11.831 19.7559 11.831 19.0078 11.831 18.2618C11.831 17.9815 11.7877 17.7033 11.7692 17.423C11.7094 16.5039 11.2952 15.8712 10.3596 15.6363C10.2092 15.6117 10.0727 15.5342 9.97441 15.4179C9.87616 15.3015 9.82273 15.1538 9.82374 15.0015C9.82374 14.7048 10.0298 14.5049 10.442 14.3668C10.8857 14.2285 11.3183 14.057 11.7362 13.8536C12.5956 13.4023 13.0057 12.6171 13.1788 11.6959C13.2612 11.2838 13.2633 10.8407 13.3107 10.4141C13.3248 10.1914 13.36 9.97061 13.4158 9.75461C13.4316 9.67602 13.4631 9.60142 13.5083 9.53524C13.5536 9.46906 13.6117 9.41266 13.6792 9.3694C13.7467 9.32614 13.8222 9.2969 13.9012 9.28342C13.9802 9.26993 14.0612 9.27249 14.1392 9.29092C14.286 9.32664 14.4148 9.41494 14.501 9.53911C14.5872 9.66328 14.6248 9.81473 14.607 9.96482C14.5802 10.4697 14.5287 10.9705 14.4792 11.4734C14.4791 11.6612 14.4485 11.8477 14.3885 12.0257C14.1206 12.6048 14.3597 13.1035 14.6049 13.6043C14.8469 14.0764 15.2607 14.4378 15.7611 14.6141C16.0558 14.7316 16.3566 14.8202 16.6555 14.9376C16.7924 14.9757 16.9147 15.054 17.0066 15.1624C17.0984 15.2708 17.1556 15.4043 17.1707 15.5456C17.2036 15.863 16.9976 16.0649 16.7585 16.2195C16.2495 16.5327 15.7136 16.8068 15.2314 17.1572C14.2896 17.8414 13.6549 18.7461 13.4962 19.929C13.3767 20.8172 13.2901 21.7075 13.1767 22.6081C13.1458 22.8863 13.1005 23.1645 13.0943 23.4448C13.0821 23.6135 13.0077 23.7717 12.8854 23.8886C12.7632 24.0055 12.6019 24.0728 12.4328 24.0775C12.0989 24.0527 11.8599 23.7931 11.8454 23.3768C11.829 22.909 11.8454 22.4412 11.8454 21.9733C11.8454 21.5055 11.8454 21.0006 11.8454 20.5143L11.831 20.504ZM14.9347 15.7269L13.354 14.2122L12.1566 15.1107C12.3855 15.4736 12.592 15.85 12.7749 16.238C12.9069 16.6292 13.0136 17.0284 13.0943 17.4333L14.9347 15.7269Z" fill="#3558A2"/>
<path d="M4.40403 21.6671C4.28649 22.6768 4.49212 23.6977 4.99137 24.5832C5.22563 25.0112 5.55398 25.3805 5.95171 25.6631C6.10824 25.7646 6.25703 25.8776 6.39686 26.0011C6.77811 26.372 6.74309 26.8254 6.30619 27.1448C6.1179 27.2664 5.9201 27.3725 5.71473 27.4622C4.96279 27.8179 4.3648 28.4335 4.03101 29.1954C3.79195 29.7374 3.83729 30.3309 3.82492 30.9038C3.81256 31.4767 3.85583 31.9878 3.87232 32.5298C3.88161 32.6416 3.88161 32.754 3.87232 32.8658C3.8683 33.0174 3.80696 33.1619 3.70065 33.2701C3.59434 33.3783 3.45095 33.4423 3.2994 33.449C3.14845 33.4503 3.00225 33.3963 2.88836 33.2972C2.77447 33.1981 2.70076 33.0608 2.68114 32.9111C2.65013 32.6893 2.63774 32.4652 2.64406 32.2413C2.63985 31.0642 2.51765 29.8906 2.27929 28.7379C2.19269 28.3953 2.06175 28.0656 1.88979 27.7569C1.79388 27.5723 1.64834 27.4182 1.46957 27.3119C1.29079 27.2056 1.08587 27.1513 0.877903 27.1551C0.840808 27.1551 0.80373 27.1551 0.766634 27.1551C0.354465 27.1139 0.113339 26.9326 0.0638786 26.6296C0.00411402 26.2752 0.216381 26.0732 0.476048 25.9104C0.588235 25.8433 0.704576 25.7834 0.824344 25.7311C2.25457 25.0881 2.88517 23.9052 3.07065 22.4173C3.11392 22.0648 3.13455 21.7083 3.19226 21.358C3.26645 20.9066 3.49108 20.7047 3.8373 20.7397C4.18352 20.7748 4.34426 20.9891 4.39166 21.4054C4.40196 21.4981 4.39991 21.6197 4.40403 21.6671ZM3.65595 24.8738L2.36998 26.3164L3.37361 27.7363C3.61473 27.5096 3.85171 27.2747 4.10313 27.0583C4.35456 26.8419 4.60805 26.6461 4.83474 26.4648L3.65595 24.8738Z" fill="#3558A2"/>
<path d="M10.1516 9.38425C9.98543 9.37824 9.82848 9.30647 9.71524 9.18473C9.602 9.06299 9.54176 8.90125 9.54777 8.7351C9.55379 8.56894 9.62555 8.41198 9.74729 8.29874C9.86904 8.1855 10.0308 8.12526 10.1969 8.13127C10.2803 8.1312 10.3627 8.14798 10.4394 8.18058C10.5161 8.21319 10.5854 8.26095 10.6431 8.32101C10.7008 8.38106 10.7459 8.45217 10.7754 8.53006C10.805 8.60794 10.8185 8.69101 10.8152 8.77425C10.8077 8.943 10.7337 9.10191 10.6093 9.21623C10.485 9.33054 10.3204 9.39096 10.1516 9.38425Z" fill="#3558A2"/>
<path d="M15.3722 4.34323C15.2884 4.34743 15.2047 4.33454 15.1261 4.30535C15.0475 4.27616 14.9756 4.23128 14.9149 4.17345C14.8542 4.11562 14.8058 4.04604 14.7729 3.96894C14.7399 3.89184 14.7229 3.80884 14.723 3.72498C14.7177 3.64575 14.7281 3.56626 14.7537 3.49108C14.7792 3.4159 14.8194 3.34652 14.8719 3.28695C14.9244 3.22737 14.9882 3.17877 15.0595 3.14395C15.1309 3.10912 15.2084 3.08877 15.2877 3.08405C15.3724 3.0745 15.4581 3.08221 15.5397 3.10672C15.6213 3.13123 15.6971 3.17202 15.7625 3.22664C15.8279 3.28125 15.8816 3.34856 15.9203 3.42448C15.9589 3.50041 15.9818 3.58339 15.9875 3.66841C15.9932 3.75343 15.9817 3.83872 15.9535 3.91914C15.9254 3.99957 15.8812 4.07345 15.8237 4.13632C15.7662 4.1992 15.6965 4.24977 15.6189 4.28498C15.5413 4.32018 15.4574 4.3393 15.3722 4.34117V4.34323Z" fill="#3558A2"/>
<path d="M18.0325 7.76204C18.0328 7.84573 18.0164 7.92863 17.9843 8.00593C17.9522 8.08322 17.9051 8.15335 17.8456 8.21223C17.7861 8.27112 17.7156 8.31759 17.638 8.34892C17.5604 8.38025 17.4773 8.39582 17.3936 8.39472C17.3102 8.39696 17.2272 8.38228 17.1495 8.35157C17.0719 8.32085 17.0013 8.27474 16.942 8.216C16.8827 8.15727 16.8359 8.08713 16.8044 8.00981C16.7729 7.9325 16.7575 7.84962 16.7589 7.76616C16.7616 7.59778 16.8302 7.43717 16.9501 7.31887C17.0699 7.20056 17.2314 7.13399 17.3998 7.13347C17.4831 7.13152 17.5659 7.14641 17.6432 7.17725C17.7206 7.20809 17.791 7.25426 17.8501 7.31296C17.9091 7.37167 17.9558 7.44171 17.9871 7.51888C18.0185 7.59605 18.0339 7.67876 18.0325 7.76204Z" fill="#3558A2"/>
<path d="M17.7765 0.617017C17.7768 0.774425 17.7171 0.926028 17.6095 1.04091C17.5019 1.15579 17.3545 1.2253 17.1974 1.23527C17.0738 1.24312 16.9507 1.21364 16.844 1.15065C16.7373 1.08765 16.652 0.994063 16.5991 0.882007C16.5463 0.769951 16.5283 0.644598 16.5475 0.522207C16.5668 0.399815 16.6224 0.286031 16.7071 0.195607C16.7918 0.105183 16.9017 0.0422906 17.0225 0.0150874C17.1434 -0.0121159 17.2697 -0.00237694 17.3849 0.043043C17.5002 0.0884629 17.5992 0.167469 17.669 0.269814C17.7388 0.372158 17.7763 0.493121 17.7765 0.617017Z" fill="#3558A2"/>
<path d="M40.3223 30.2565C35.4422 26.0215 30.6219 21.8359 25.7769 17.6338C25.8352 17.5838 25.8988 17.5403 25.9665 17.504C28.0747 16.8363 30.2221 16.5065 32.4354 16.7765C36.4747 17.2649 39.3001 19.7812 40.2893 23.5959C40.8334 25.6979 40.7963 27.8165 40.4398 29.9412C40.4078 30.0488 40.3685 30.1542 40.3223 30.2565Z" fill="#3558A2" fill-opacity="0.12"/>
<path d="M33.808 42.4482C33.4824 43.7899 33.1733 45.0717 32.8497 46.4092L18.7886 43.8764C18.7556 42.3102 18.9411 40.7975 18.9432 39.188L33.808 42.4482Z" fill="#3558A2" fill-opacity="0.12"/>
<path d="M19.0337 37.7596C19.0914 36.554 19.147 35.3835 19.2027 34.215C19.6849 34.1923 34.4055 37.467 34.964 37.7184L34.1397 41.0775L19.0337 37.7596Z" fill="#3558A2" fill-opacity="0.12"/>
<path d="M32.5184 47.792C32.2258 48.979 31.9599 50.0589 31.6797 51.2006C30.1876 51.0378 28.7615 50.6771 27.3168 50.4278C25.8722 50.1784 24.4152 49.8878 22.9623 49.6179L18.5768 48.8059C18.5088 47.6415 18.6242 46.5163 18.7025 45.3169C20.2564 45.5395 21.7649 45.8527 23.2776 46.1186C24.8232 46.3933 26.3668 46.6681 27.9083 46.9429C29.4271 47.2129 30.9439 47.4952 32.5184 47.792Z" fill="#3558A2" fill-opacity="0.12"/>
<path d="M15.9697 30.042L39.2345 35.1673L38.7502 37.0365C38.2989 36.9438 37.8991 36.8675 37.5014 36.7789L22.7581 33.4671C20.7371 33.011 18.7161 32.559 16.6951 32.1111C16.5137 32.0719 16.3241 32.0699 16.1386 32.0451C15.9058 32.0142 15.7512 31.8988 15.7533 31.6495C15.7438 31.1058 15.8167 30.5638 15.9697 30.042Z" fill="white"/>
<path d="M40.0405 31.8741C39.8447 32.4779 39.6613 33.0406 39.4532 33.6794L22.1235 19.2535C22.4121 18.9134 23.1869 18.5136 24.2277 18.1592L40.0405 31.8741Z" fill="white"/>
<path d="M16.2001 33.4482L17.8241 33.8089C17.5933 38.7013 17.3624 43.567 17.1275 48.5027L15.2315 48.1647C15.2315 47.5877 15.2006 47.0643 15.2315 46.547C15.3531 44.8324 15.4994 43.1177 15.6437 41.3949C15.7241 40.3912 15.7941 39.3855 15.8766 38.3819C15.8951 38.1614 15.9652 37.9429 15.9775 37.7204C16.0332 36.7167 16.0765 35.711 16.1259 34.7054C16.1424 34.3076 16.1713 33.9016 16.2001 33.4482Z" fill="white"/>
<path d="M36.3469 37.9678L37.7751 38.2707C37.7544 38.4335 37.7483 38.5592 37.7194 38.6829C37.5607 39.3341 37.4062 39.9874 37.231 40.6345C37.1383 40.9725 36.9816 41.294 36.9013 41.634C36.7632 42.2131 36.6952 42.8066 36.5385 43.3796C35.875 45.8835 35.4937 48.4492 34.8569 50.9593C34.793 51.2087 34.725 51.4581 34.6508 51.7445C34.1096 51.7257 33.5745 51.6243 33.064 51.4436C34.1583 46.9531 35.2464 42.4872 36.3469 37.9678Z" fill="white"/>
<path d="M18.3604 22.3198L20.9158 19.8633L22.039 20.7948C21.1446 21.6995 20.1842 22.4084 19.2692 23.2678L18.3604 22.3198Z" fill="#E6EEFE"/>
<path d="M37.332 17.1945L38.0884 16.5L39.6278 17.8993L39.0281 18.6083L37.332 17.1945Z" fill="#E6EEFE"/>
<path d="M14.9345 15.7271L13.0798 17.4335C12.9991 17.0286 12.8924 16.6294 12.7603 16.2382C12.5774 15.8502 12.371 15.4737 12.1421 15.1109L13.3395 14.2124L14.9345 15.7271Z" fill="white"/>
<path d="M3.6556 24.8735L4.83439 26.4686C4.6077 26.65 4.34802 26.8478 4.10278 27.0622C3.85754 27.2765 3.61438 27.5135 3.37326 27.7402L2.36963 26.3203L3.6556 24.8735Z" fill="white"/>
</svg>

<svg xmlns="http://www.w3.org/2000/svg" width="42" height="54" fill="none" viewBox="0 0 42 54"><path fill="#3558a2" d="M37.168 33.389 23.076 21.642a1 1 0 0 0-.207.097q-1.389 1.224-2.773 2.454a4 4 0 0 1-.382.328.74.74 0 0 1-.973-.017 25 25 0 0 1-1.599-1.727c-.305-.367-.255-.698.073-1.063.224-.25.476-.476.719-.709.618-.596 1.253-1.179 1.854-1.789a5.4 5.4 0 0 1 1.394-1.018 30 30 0 0 1 4.121-1.78 17.4 17.4 0 0 1 6.405-.932c1.388.048 2.755.359 4.027.915.134.06.274.105.437.17.412-.37.802-.737 1.208-1.095.581-.511.872-.511 1.442.014.571.526 1.19 1.082 1.779 1.632.657.619.666.89.064 1.542l-.497.536c-.373.412-.379.412-.088.853a11.3 11.3 0 0 1 1.61 4.101 17.1 17.1 0 0 1-.044 6.14 21.3 21.3 0 0 1-1.06 3.89.9.9 0 0 0 0 .643c.081.227.1.472.058.71-.158.727-.358 1.442-.552 2.167a1.01 1.01 0 0 1-.536.688.72.72 0 0 0-.396.565c-.5 2.028-1.03 4.05-1.504 6.084-.583 2.49-1.121 4.987-1.684 7.48-.12.53-.179.59-.725.549a18 18 0 0 1-1.83-.237c-2.17-.396-4.328-.812-6.506-1.218l-9.31-1.762-3.251-.6c-.206-.037-.394-.097-.653-.16 0-.483-.023-.945 0-1.404q.118-2.071.274-4.142c.086-1.138.206-2.267.3-3.41.095-1.14.19-2.266.26-3.412.07-1.175.103-2.353.171-3.53a.58.58 0 0 0-.179-.499 1.03 1.03 0 0 1-.299-.871c.058-.654.118-1.305.206-1.954.111-.909.619-1.286 1.513-1.097 1.855.4 3.726.812 5.589 1.223q2.93.642 5.861 1.29l5.53 1.236q1.971.434 3.946.866.15.01.299 0m3.155-3.133q.069-.153.117-.315c.357-2.125.394-4.243-.15-6.345-.99-3.815-3.815-6.331-7.854-6.82-2.213-.27-4.36.06-6.47.728q-.1.055-.189.13c4.845 4.201 9.657 8.387 14.546 12.622m-6.515 12.192-14.86-3.266c0 1.61-.188 3.122-.155 4.688l14.061 2.54c.313-1.338.629-2.62.954-3.962M19.034 37.76l15.112 3.318.825-3.36c-.559-.25-15.28-3.526-15.762-3.503-.055 1.169-.117 2.34-.175 3.545m13.484 10.032c-1.574-.289-3.091-.57-4.61-.847a632 632 0 0 0-4.63-.824c-1.513-.266-3.022-.58-4.576-.802-.078 1.2-.193 2.325-.125 3.489l4.385.812c1.443.27 2.9.563 4.355.81s2.87.618 4.363.773c.28-1.144.546-2.232.838-3.411M15.97 30.05a5.4 5.4 0 0 0-.206 1.608c0 .249.152.364.385.395.185.025.375.027.556.066q3.034.674 6.063 1.356l14.727 3.304c.398.088.798.165 1.25.257l.483-1.869zm24.07 1.832L24.228 18.16c-1.03.355-1.816.754-2.105 1.094l17.33 14.426c.208-.639.392-1.201.587-1.805zM16.2 33.457c-.028.453-.057.86-.078 1.265-.05 1.006-.093 2.011-.148 3.015-.013.223-.083.441-.101.662-.083 1.003-.153 2.009-.233 3.013-.134 1.714-.28 3.429-.412 5.152-.037.517 0 1.03 0 1.617l1.896.338c.235-4.946.466-9.801.696-14.693zm20.147 4.52c-1.1 4.519-2.188 8.984-3.283 13.473.51.18 1.046.282 1.587.3.074-.286.142-.535.206-.784.637-2.51 1.018-5.076 1.682-7.58.15-.573.225-1.167.363-1.746.08-.34.237-.661.33-1 .175-.646.33-1.3.488-1.95.029-.122.035-.248.056-.413zM18.36 22.327l.911.954c.92-.865 1.876-1.574 2.77-2.473l-1.125-.931zm18.972-5.125 1.697 1.413.6-.708-1.54-1.4zM28.82 5.476c.238.122.412.207.568.291a2.6 2.6 0 0 1 1.237 1.4c.65 1.726-.889 3.204-2.238 3.023-.998-.134-1.92-1.12-1.995-2.203-.023-.334 0-.668 0-1.043q-.165.038-.32.109c-1.498.894-2.436 2.182-2.72 3.916-.056.348-.054.707-.078 1.059-.025.398-.207.618-.555.66a.64.64 0 0 1-.68-.539 2.3 2.3 0 0 1-.037-.502c0-1.781.721-3.263 1.91-4.534a5.12 5.12 0 0 1 2.98-1.665 1 1 0 0 0 .619-.427 6.48 6.48 0 0 1 3.928-2.314q.616-.081 1.236-.035c.168.016.33.068.476.152a.57.57 0 0 1 .318.604.534.534 0 0 1-.454.505 2.7 2.7 0 0 1-.618 0c-1.422-.06-2.527.593-3.578 1.543m-.864 1.237c-.197.29-.302.633-.301.983a1.16 1.16 0 0 0 .688 1.127c.132.066.281.09.427.068a.97.97 0 0 0 .688-1.08c-.111-.632-.73-1.096-1.502-1.096zM11.831 20.504v-2.242c0-.28-.043-.559-.062-.839-.06-.92-.474-1.552-1.41-1.787a.64.64 0 0 1-.535-.634c0-.297.206-.497.618-.635a9 9 0 0 0 1.294-.513c.86-.452 1.27-1.237 1.443-2.158.082-.412.084-.855.132-1.282q.021-.335.105-.66A.598.598 0 0 1 14.5 9.54a.62.62 0 0 1 .106.426c-.027.505-.078 1.005-.128 1.508q0 .284-.09.553c-.268.579-.03 1.078.216 1.578.242.472.656.834 1.156 1.01.295.118.596.206.895.324a.71.71 0 0 1 .515.608c.033.317-.173.519-.412.674-.51.313-1.045.587-1.528.937-.941.684-1.576 1.59-1.735 2.772-.12.888-.206 1.779-.32 2.68-.03.277-.075.555-.082.836a.68.68 0 0 1-.661.633c-.334-.025-.573-.285-.588-.701-.016-.468 0-.936 0-1.404v-1.459zm3.104-4.777-1.581-1.515-1.197.899q.344.545.618 1.127.198.587.32 1.195zM4.404 21.667a4.8 4.8 0 0 0 .587 2.916c.235.428.563.798.96 1.08q.236.153.446.338c.381.371.346.824-.09 1.144a4 4 0 0 1-.592.317 3.45 3.45 0 0 0-1.684 1.733c-.239.542-.194 1.136-.206 1.709s.03 1.084.047 1.626q.015.168 0 .336a.6.6 0 0 1-.573.583.62.62 0 0 1-.618-.538 4 4 0 0 1-.037-.67 17.6 17.6 0 0 0-.365-3.503 4 4 0 0 0-.39-.981 1.12 1.12 0 0 0-1.011-.602H.767c-.413-.041-.654-.222-.703-.525-.06-.355.152-.557.412-.72a3 3 0 0 1 .348-.179c1.43-.643 2.061-1.826 2.247-3.314.043-.352.064-.709.121-1.059.074-.451.3-.653.645-.618.347.035.507.25.555.665.01.093.008.215.012.262m-.748 3.207L2.37 26.316l1.004 1.42c.24-.226.478-.461.73-.678.25-.216.504-.412.73-.593zM10.152 9.384a.627.627 0 0 1 .045-1.253.62.62 0 0 1 .618.643.64.64 0 0 1-.663.61M15.372 4.343a.62.62 0 0 1-.649-.618.6.6 0 0 1 .565-.641.63.63 0 1 1 .084 1.257zM18.033 7.762a.63.63 0 0 1-.64.633.62.62 0 0 1-.634-.629.643.643 0 0 1 .64-.633.62.62 0 0 1 .633.629M17.777.617a.618.618 0 1 1-1.237.002.618.618 0 0 1 1.236-.002"/><path fill="#3558a2" fill-opacity=".12" d="M40.322 30.257c-4.88-4.236-9.7-8.421-14.545-12.623q.088-.075.19-.13c2.108-.668 4.255-.998 6.468-.728 4.04.489 6.865 3.005 7.854 6.82.544 2.102.507 4.22.15 6.345a3 3 0 0 1-.117.316M33.808 42.448c-.326 1.342-.635 2.624-.958 3.961l-14.061-2.533c-.033-1.566.152-3.078.154-4.688zM19.034 37.76l.169-3.545c.482-.023 15.203 3.252 15.761 3.503l-.824 3.36zM32.518 47.792l-.838 3.409c-1.492-.163-2.918-.524-4.363-.773-1.445-.25-2.902-.54-4.355-.81l-4.385-.812c-.068-1.164.047-2.29.125-3.49 1.554.223 3.063.537 4.576.803l4.63.824c1.52.27 3.036.552 4.61.849"/><path fill="#fff" d="m15.97 30.042 23.265 5.125-.485 1.87c-.451-.093-.85-.17-1.249-.258l-14.743-3.312q-3.03-.684-6.063-1.356c-.181-.04-.37-.041-.556-.066-.233-.03-.388-.146-.386-.396a5.4 5.4 0 0 1 .217-1.607M40.04 31.874c-.195.604-.379 1.167-.587 1.805l-17.33-14.426c.29-.34 1.064-.74 2.105-1.094zM16.2 33.448l1.624.36c-.23 4.893-.462 9.759-.697 14.695l-1.895-.338c0-.577-.031-1.1 0-1.618.121-1.715.267-3.43.412-5.152.08-1.004.15-2.01.233-3.013.018-.22.088-.44.1-.662.056-1.003.1-2.009.149-3.015.016-.397.045-.803.074-1.257M36.347 37.968l1.428.303c-.02.163-.027.288-.056.412-.158.651-.313 1.304-.488 1.952-.093.337-.25.659-.33.999-.138.58-.206 1.173-.363 1.746-.663 2.503-1.044 5.07-1.681 7.58-.064.249-.132.498-.206.785a5.3 5.3 0 0 1-1.587-.301z"/><path fill="#e6eefe" d="m18.36 22.32 2.556-2.457 1.123.932c-.894.904-1.855 1.613-2.77 2.473zM37.332 17.195l.756-.695 1.54 1.4-.6.708z"/><path fill="#fff" d="m14.935 15.727-1.855 1.706a10 10 0 0 0-.32-1.195q-.274-.582-.618-1.127l1.197-.899zM3.656 24.874l1.178 1.595c-.226.181-.486.379-.731.593s-.489.451-.73.678L2.37 26.32z"/></svg>
